X: 3
T: Heather Breeze
S: Andrew MacNamara
M: 4/4
L: 1/8
R: Reel
K: G
DGBG dGBG|DFAB cBAF|DGBG dGBG|B/c/dcA BGG2:|
~g3f gbag|fdde fgaf|~g3f gbag|fdcA BGG2|
~g3f gbag|fdde fgaf|defg ~a3g|fdcA BGG2||
